X:1
T:Dolcissimo sospiro
T:Bartolomeo Mutiis Conte di Cesana
T:Source : Musiche a uno, doi e tre voci---Venetia---Herede di Angelo Gardano---1613. Editor : André Vierendeels (06/11/16).
T:Notes : Original clefs : C1, C1, F4, F4 Figures in BC are notated in original print m 57 : "D" notated as "E" in original print "Alto, Tenore è Basso" Text by Ottavio Rinuccini
T:Dolcissimo sospiro
T:©
T:©
T:©
T:©
T:©
T:©
T:©
T:©
T:©
C:Bartolomeo Mutiis
C:Conte di Cesana
Z:©
%%score [ 1 2 3 ] 4
L:1/8
Q:1/4=85
M:4/4
K:F
V:1 treble-8 nm="Tenor 1" snm="T 1"
V:2 treble-8 nm="Tenor 2" snm="T 2"
V:3 bass nm="Bass" snm="B"
V:4 bass nm="MusicXML Part"
V:1
 c4 c4- | c4 c4 | d2 f2 e4 | e4 z2 e2 | g4 e4 | e2 ef g4 | e4 f4- | f4 e4 | f4 z4 | z8 | z4 z2 e2 | %11
w: Dol- cis-|* si-|mo so- spi-|ro, so-|spi- ro|ch'e- sci da quel-|la boc-||ca,||o-|
 e c/d/ e/f/g/e/ f4 | z4 c4- | c4 c4- | c2 B2 B4- | B4 A4 | G8 | A8 :: z8 | z8 | z4 c4 | %21
w: ve d'A- * * * * * mor|o-|* gni|_ dol- cez-|* za|fioc-|ca,|||deh|
 c3 B c3 d | c4 F4 | z8 | z8 | z8 | z4 z2 c2 | d4 d4 | e4 f4 | f4 e4 | f8 | z4 g4- | g2 fe d3 d | %33
w: vie- ni'à ra- dol-|ci- re,||||l'a-|mo- ro|mio do-|lo- *|re|ec-|* co chio t'a- pro'il|
 c8 | c4 z cBA | G2 A2 G4 | A4 z4 | z4 c4 | f3 e d3 e | f4 d4 | c6 c2 | B8 | A4 z ABc | d6 c2 | %44
w: co-|re, ec- co chio|t'a- pro'il co-|re,|ma|fol- le'à che ri-|di- co'il|mio mar-|ti-|re, ad un so-|spir' er-|
 B>A GA/B/ c>d e>c | d>e f>d c>d c>B | A2 B/A/B/G/ A4 | G8 | z GAB c2 z c | d>e f>d e>f g>e | %50
w: ran- * * * * * * * *|||te,|ad un so- spir, ad|un _ so- * spir' _ er- *|
 f>g a>f g>f e>d | c>c d>e fefd | e8 | d8 | z4 z2 B2 | _edcB A3 A | d6 d2 | c8 | d6 d2 | %59
w: ran- * * * * * * *|||te|che|for- se vol' in sen ad|al- tr'a-|man-|te, che|
 gfed e2 z c | fedc B2 z B | cBAG Ffed | e/d/e/d/ e/c/d/e/ f4- | f2 ed e4 | f8 :| %65
w: for- se vol' in sen, che|for- se vol' in sen, che|for- se vol' in sen ad al- tr'a-|man- * * * * * * * *||te.|
V:2
 A8 | A4 G4 | A2 z A c4 | G4 G2 GF | E2 E2 G4 | AB cA =BcdB | c4 A4 | G8 | F8 | z4 z2 =B2 | %10
w: Dol-|cis- si-|mo so- spi-|ro, ch'e- sci da|quel- la, ch'e-|sci _ da _ quel- * * *|la boc-||ca,||
 =B G/A/ B/c/d/B/ c4 | z4 A4- | A4 A4- | A4 G4 | G6 F2 | E4 F4 | F4 E4 | F8 :: z8 | z4 A4 | %20
w: ve d'A- * * * * * mor|o-|* gni|_ dol-|cez- *|* za|fioc- *|ca,||deh|
 A3 G A3 B | A4 A4 | z8 | z8 | z4 z2 G2 | A4 A4 | =B4 c4 | c4 =B4 | c4 A4 | G8 | F4 z4 | c6 BA | %32
w: vie- ni'a ra- dol-|ci- re,|||l'a-|ma- ro|mio do-|lo- *|re, do-|lo-|re,|ec- co ch'io|
 G6 G2 | G4 AAGF | E4 EAGF | E2 F2 F2 E2 | F8 | z4 A4 | d6 c2 | B3 c A3 B | G4 A4 | G8 | F4 z FGA | %43
w: t'a- pro'il|co- re, ec- co ch'io|t'a- pro, ec- co chio|t'a- pro'il co- *|re|ma|fol- le'à|che ri- di- co'il|mio mar-|ti-|re, ad un so-|
 B6 A2 | G>F E>D C2 d/c/B/A/ | G2 B/A/G/F/ E>F G>E | ^F2 G4 F2 | G8 | z8 | z8 | z8 | z8 | z8 | %53
w: spir er-|ran- * * * * * * * *|||te,||||||
 z4 z2 A2 | dcBA G2 z G | cBAG F3 F | B6 B2 | A2 B4 A2 | B8 | z4 z2 E2 | AGFE D4 | z2 c2 dcBA | %62
w: che|for- se vol' in sen, che|for- se vol' in sen ad|al- tr'a-|man- * *|te,|che|for- se vol' in sen,|che for- se vol' in|
 G4 z GAB | c>c B>A G4 | F8 :| %65
w: sen ad al- tr'a-|man- * * * *|te.|
V:3
 F,8 | F,4 E,4 | D,4 z2 A,,2 | C,8 | C,4 C,2 C,B,, | A,,4 G,,4 | C,8- | C,8 | D,4 z2 D,2 | %9
w: Dol-|cis- si-|mo so-|spi-|ro, ch'e- sci da|quel- la|boc-||ca, o|
 D,2 D,E,/F,/ G,4 | z4 z2 C,2 | C,2 C,/D,/E,/C,/ D,4 | F,8 | F,4 E,4 | _E,4 D,4 | C,8- | C,8 | %17
w: ve d'A- * * mor,|o-|ve d'A- * * * mor|o-|gni dol-|cez- za|fioc-||
 F,,8 :: z4 F,4 | F,3 E, F,3 G, | F,8 | F,8 | z4 D,4 | E,4 E,4 | ^F,4 G,4 | G,4 ^F,4 | G,8 | z8 | %28
w: ca,|deh|vie- ni'à ra- dol-|ci-|re|l'a-|ma- ro|mio do-|lo- *|re,||
 z8 | z8 | z4 F,4- | F,2 E,D, C,4- | C,2 C,2 =B,,4 | C,4 A,,4 | C,8- | C,8 | F,,4 B,,4 | F,6 E,2 | %38
w: ||ec|_ co ch'io t'a-|* pro'il co-|re, il|co-||re, ma|fol- le'à|
 D,3 C, B,,4- | B,,4 D,4 | E,4 F,4 | F,4 E,4 | F,8 | z8 | z8 | z8 | z8 | z4 z G,,A,,=B,, | %48
w: che ri- di|_ co'il|mio mar-|ti- *|re,|||||ad un so-|
 C,4 A,,>B,, C,>A,, | B,,>C, D,>B,, C,>D, E,>C, | D,>E, F,>D, E,>F, G,>E, | %51
w: spir' er- * * *|ran- * * * * * * *||
 F,>G, F,>E, D,>D, C,>B,, | A,,2 G,,2 A,,4 | D,8 | z2 D,2 G,F,_E,D, | C,4 D,4 | B,,6 D,2 | F,8 | %58
w: ||te,|che for- se vol' in|sen' ad|al- tr'a-|man-|
 B,,8 | z2 G,,2 C,B,,A,,G,, | F,,4 G,,4 | A,,4 B,,4 | C,8- | C,8 | F,,8 :| %65
w: te,|che for- se vol' in|sen, ad|al- tr'a-|man-||te.|
V:4
"^BC" F,8 | F,4 E,4 | D,4 A,,4 | C,8 | C,8 | A,,4 G,,4 | C,8- | C,8 | D,8 |"^-natural" D,4 G,,4 | %10
"^-natural" G,,4 C,4 | C,4 D,4 | F,8 | F,4 E,4 | _E,4 D,4 | C,8- | C,8 | F,,8 :: F,,8- | F,,8 | %20
 F,,8- | F,,8 | F,4 D,4 |"^#" C,4 A,,4 |"^#" D,8- | D,8 |"^-natural" G,,8- | G,,8 | C,8- | C,8 | %30
 D,4 F,4- | F,2 E,D, C,4 | C,2 C,2 =B,,4 | C,4 A,,4 | C,8- | C,8 | F,,4 B,,4 | F,6 E,2 | %38
 D,3 C, B,,4- | B,,4 D,4 | E,4 F,4- | F,4 E,4 | F,8 | B,,4 G,,4 | G,,4 A,,4 | B,,4 C,4 |"^#" D,8 | %47
"^-natural" G,,8 | C,4 A,,4 | B,,4 C,4 | D,4 E,4 | F,4 D,4 | A,,2 G,,2 A,,4 | D,8 | D,4 G,4 | %55
 C,4 D,4 | B,,6 D,2 | F,8 | B,,8 | G,,4 C,4 | F,,4 G,,4 | A,,4 B,,4 | C,8 | C,8 | F,,8 :| %65

